public/img/top/n-dapp.svg

<svg fill="none" height="50" viewBox="0 0 192 50" width="192" xmlns="http://www.w3.org/2000/svg" xmlns:xlink="http://www.w3.org/1999/xlink"><clipPath id="a"><path d="m0 0h192v50h-192z"/></clipPath><g clip-path="url(#a)" fill="#003"><path d="m29.8385 9.69763-4.884 21.31017-6.459-21.31017h-10.81982l-7.67568 32.30687h9.42119l4.36661-20.448 6.6295 20.448h10.6436l7.6814-32.30687z"/><path d="m49.4707 0-11.9228 50h5.9586l12.4573-50z"/><path d="m89.0603 26.5901c2.1379-8.5946-4.4689-16.88685-13.4523-16.88685h-13.7196l-7.7439 32.30685h18.1942c7.562 0 14.146-5.084 15.9484-12.3181zm-10.7118-2.0716-1.0575 4.2385c-.887 3.561-4.1278 6.0582-7.8463 6.0582h-3.2238l4.1847-17.458h2.2402c3.8094 0 6.6067 3.5163 5.7027 7.1557z"/><path d="m105.089 9.69763-18.672 32.30687h10.5924l3.4566-6.6742h10.081l.33 6.6742h9.717l-3.275-32.30687zm-1.098 18.84097 5.794-11.1814.438 11.2038z"/><path d="m147.834 9.69763h-16.938l-7.437 32.30687h10.075l2.303-9.5745h8.938c6.146 0 11.428-4.2945 12.588-10.2408l.176-.907c1.171-6.0079-3.502-11.57897-9.717-11.57897zm-.222 11.92607-.017.0728c-.432 1.8925-2.138 3.2363-4.105 3.2363h-5.84l1.894-7.8611h4.378c2.428 0 4.23 2.2172 3.695 4.552z"/><path d="m182.101 9.69763h-16.938l-7.436 32.30687h10.075l2.302-9.5745h8.938c6.146 0 11.428-4.2945 12.588-10.2408l.177-.907c1.171-6.0079-3.503-11.57897-9.717-11.57897zm-.222 11.92607-.017.0728c-.432 1.8925-2.138 3.2363-4.105 3.2363h-5.839l1.893-7.8611h4.378c2.428 0 4.23 2.2172 3.696 4.552z"/></g></svg>

<svg width="192" height="50" viewBox="0 0 192 50" fill="none" xmlns="http://www.w3.org/2000/svg">
<g clip-path="url(#clip0_553_3962)">
<path d="M29.8385 9.69763L24.9545 31.0078L18.4955 9.69763H7.67568L0 42.0045H9.42119L13.7878 21.5565L20.4173 42.0045H31.0609L38.7423 9.69763H29.8385Z" fill="#000033"/>
<path d="M49.4707 0L37.5479 50H43.5065L55.9638 0H49.4707Z" fill="#000033"/>
<path d="M89.0603 26.5901C91.1982 17.9955 84.5914 9.70325 75.608 9.70325H61.8884L54.1445 42.0101H72.3387C79.9007 42.0101 86.4847 36.9261 88.2871 29.692L89.0603 26.5901ZM78.3485 24.5185L77.291 28.757C76.404 32.318 73.1632 34.8152 69.4447 34.8152H66.2209L70.4056 17.3572H72.6458C76.4552 17.3572 79.2525 20.8735 78.3485 24.5129V24.5185Z" fill="#000033"/>
<path d="M105.089 9.69763L86.417 42.0045H97.0094L100.466 35.3303H110.547L110.877 42.0045H120.594L117.319 9.69763H105.089ZM103.991 28.5386L109.785 17.3572L110.223 28.561L103.991 28.5386Z" fill="#000033"/>
<path d="M147.834 9.69763H130.896L123.459 42.0045H133.534L135.837 32.43H144.775C150.921 32.43 156.203 28.1355 157.363 22.1892L157.539 21.2822C158.71 15.2743 154.037 9.70323 147.822 9.70323L147.834 9.69763ZM147.612 21.6237L147.595 21.6965C147.163 23.589 145.457 24.9328 143.49 24.9328H137.65L139.544 17.0717H143.922C146.35 17.0717 148.152 19.2889 147.617 21.6237H147.612Z" fill="#000033"/>
<path d="M182.101 9.69763H165.163L157.727 42.0045H167.802L170.104 32.43H179.042C185.188 32.43 190.47 28.1355 191.63 22.1892L191.807 21.2822C192.978 15.2743 188.304 9.70323 182.09 9.70323L182.101 9.69763ZM181.879 21.6237L181.862 21.6965C181.43 23.589 179.724 24.9328 177.757 24.9328H171.918L173.811 17.0717H178.189C180.617 17.0717 182.419 19.2889 181.885 21.6237H181.879Z" fill="#000033"/>
</g>
<defs>
<clipPath id="clip0_553_3962">
<rect width="192" height="50" fill="white"/>
</clipPath>
</defs>
</svg>
